X:1
T:Title
%%score { ( 1 2 ) | ( 3 4 ) }
L:1/8
Q:1/4=100
M:6/8
K:F
V:1 treble nm="Grand Piano"
V:2 treble 
V:3 bass 
V:4 bass 
V:1
 z3 .G3 | z3 .G3 | [Dd]2 [DB] [G_e]2 [Fd] | d3 c3 | F3 ABc | F3 ABc | c2 _e d2 ^c | [Fd]6 | %8
 z2 F, GA[^CB] | [DF]3 GA[^CB] | [Dd]2 [Fd] [^F_e]2 [Fd] | d3 G3 | B2 B A2 G | F2 B _e2 d | %14
 [Ec]2 [EG] [_EA]2 [EF] | [DB]6 | [DF]3 [Fd]3 | z3 [DB]3 | A2 G A2 _E | [^CG]3 [DF]3 | %20
 [DF]3 [Fd]3 | [_Ec]3 [DB]3 | [EG]2 [EG] [Ed]2 [Ec] | [_Ec]6 | z3 .G3 | z3 .G3 | %26
 [Dd]2 [Fd] [^F_e]2 [Fd] | d3 G3 | B2 B A2 G | F2 B _e2 d | [Ec]2 [EG] [_EA]2 [EF] | %31
[M:7/4] [DB]6 z2 z2 z4 |] %32
V:2
 .[B,DF]3 ^C-[CA][CB] | [DF]3 ^C-[CA][CB] | x6 | x6 | x6 | x6 | x6 | x6 | [DF]3 .^C3 | z3 .^C3 | %10
 x6 | x6 | x6 | x6 | x6 | x6 | x6 | [_Ec]3 z2 B, | x6 | x6 | x6 | x6 | x6 | x6 | %24
 .[B,DF]3 ^C-[CA][CB] | [DF]3 ^C-[CA][CB] | x6 | x6 | x6 | x6 | x6 |[M:7/4] x14 |] %32
V:3
 z2 F, [B,,E,]2 [B,,E,] | [B,,F,]3 [B,,E,]2 [B,,E,] | [B,,F,]2 [B,,B,] [B,,B,]2 [B,,B,] | %3
 [F,A,_E]3 [F,A,E]3 | [F,A,_E]3 CB,[F,A,E] | z3 .C3 | [F,A,_E]2 [F,B,G] [F,B,F]2 [F,A,=E] | %7
 [B,,B,]6 | .[B,,B,]3 [B,,E,]2 [B,,E,] | [B,,F,]3 [B,,E,]2 [B,,E,] | %10
 [B,,F,]2 [B,,B,] [D,A,]2 [D,A,] | [G,B,G]3 [G,B,D]3 | [E,G,^C]2 [E,G,C] [E,A,C]2 [E,B,C] | %13
 [F,B,D]2 [F,B,D] [F,A,F]2 [F,B,F] | [C,G,]2 [C,C] [F,C]2 [F,A,] | [B,,F,]6 | %16
 [B,,B,]2 [B,,B,] [B,,B,]2 [B,,B,] | [B,,B,]2 [B,,B,] [B,,B,]2 B,, | %18
 [F,C_E]2 [F,B,E] [F,CE]2 [F,A,C] | E,3 z3 | [B,,B,]2 [B,,B,] [B,,B,]2 [B,,B,] | %21
 [B,,B,]2 [B,,B,] [B,,B,]2 [B,,B,] | [C,B,]2 [C,B,] [C,G,]2 [C,B,] | [F,A,]6 | %24
 z2 F, [B,,E,]2 [B,,E,] | [B,,F,]3 [B,,E,]2 [B,,E,] | [B,,F,]2 [B,,B,] [D,A,]2 [D,A,] | %27
 [G,B,G]3 [G,B,D]3 | [E,G,^C]2 [E,G,C] [E,A,C]2 [E,B,C] | [F,B,D]2 [F,B,D] [F,A,F]2 [F,B,F] | %30
 [C,G,]2 [C,C] [F,C]2 [F,A,] |[M:7/4] [B,,F,]6 z2 z2 z4 |] %32
V:4
 B,,3 z3 | x6 | x6 | x6 | z3 .[F,_E]3 | [F,A,_E]3 [F,E]-[F,B,E][F,A,E] | x6 | x6 | x6 | x6 | x6 | %11
 x6 | x6 | x6 | x6 | x6 | x6 | x6 | x6 | B,,3- [B,,F,]3 | x6 | x6 | x6 | x6 | B,,3 z3 | x6 | x6 | %27
 x6 | x6 | x6 | x6 |[M:7/4] x14 |] %32

